assets/images/bsky.svg

<svg width="572" height="504" viewBox="0 0 572 504" fill="none" xmlns="http://www.w3.org/2000/svg">
<path d="M123.991 34.6979C189.569 83.8681 260.106 183.565 286.004 237.068C311.903 183.569 382.436 83.8671 448.017 34.6979C495.335 -0.781314 572.002 -28.2331 572.002 59.12C572.002 76.5656 561.987 205.672 556.113 226.632C535.696 299.503 461.296 318.09 395.116 306.84C510.797 326.504 540.226 391.638 476.672 456.771C355.971 580.472 303.189 425.734 289.658 386.084C287.179 378.816 286.019 375.415 286.002 378.307C285.985 375.415 284.825 378.816 282.345 386.084C268.821 425.734 216.04 580.476 95.3321 456.771C31.7774 391.638 61.2046 326.5 176.888 306.84C110.706 318.09 36.305 299.503 15.8906 226.632C10.0166 205.67 0.00195312 76.5637 0.00195312 59.12C0.00195312 -28.2331 76.6712 -0.781314 123.987 34.6979H123.991Z" fill="white"/>
</svg>

<svg xmlns="http://www.w3.org/2000/svg" width="572" height="504" fill="none" viewBox="0 0 572 504"><path fill="#fff" d="M123.991 34.698c65.578 49.17 136.115 148.867 162.013 202.37 25.899-53.499 96.432-153.2 162.013-202.37C495.335-.782 572.002-28.233 572.002 59.12c0 17.446-10.015 146.552-15.889 167.512-20.417 72.871-94.817 91.458-160.997 80.208 115.681 19.664 145.11 84.798 81.556 149.931-120.701 123.701-173.483-31.037-187.014-70.687-2.479-7.268-3.639-10.669-3.656-7.777-.017-2.892-1.177.509-3.657 7.777-13.524 39.65-66.305 194.392-187.013 70.687C31.777 391.638 61.205 326.5 176.888 306.84c-66.182 11.25-140.583-7.337-160.997-80.208C10.017 205.67.002 76.564.002 59.12c0-87.353 76.67-59.901 123.985-24.422z"/></svg>
